X: 1
T:Phil Isaac's -- Jig
M:C|
L:1/8
R:reel
B:Ryan's Mammoth Collection
N:112 628
Z:Contributed by Ray Davies,  ray:davies99.freeserve.co.uk
K:A
u(AB)|\
(3cBA (3cBA vF>A"_SEGUE"E>c | d>ef>g (3agf (3efg | \
a>ec>A B>AFz | u"^4""_0"A8 |
v(3cBA (3cBA) F>AE>c | d>ef>g (3agf (3efg |\
 a>ec>A B>AFz |v"^4""_0"A6 :|
|:u(cB)|\
vAza2 czze | dzbz Bzzc | d>ef>g (3agf (3efg | a>ec>A B>AFz |
vAzaz czzc | dzbz Bzzc | d>ef>g aze>d | (3cBA G>B A2:|
